vendor/shopware/storefront/Resources/app/storefront/dist/assets/icon/default/address.svg

<svg xmlns="http://www.w3.org/2000/svg" width="24" height="24" viewBox="0 0 24 24">
  <path fill="#758CA3" fill-rule="evenodd" d="M3,21 L2,21 C1.44771525,21 1,20.5522847 1,20 C1,19.4477153 1.44771525,19 2,19 L3,19 L3,17 L2,17 C1.44771525,17 1,16.5522847 1,16 C1,15.4477153 1.44771525,15 2,15 L3,15 L3,13 L2,13 C1.44771525,13 1,12.5522847 1,12 C1,11.4477153 1.44771525,11 2,11 L3,11 L3,9 L2,9 C1.44771525,9 1,8.55228475 1,8 C1,7.44771525 1.44771525,7 2,7 L3,7 L3,5 L2,5 C1.44771525,5 1,4.55228475 1,4 C1,3.44771525 1.44771525,3 2,3 L3,3 C3,1.34314575 4.34314575,3.04359188e-16 6,0 L19,0 C20.6568542,-3.04359188e-16 22,1.34314575 22,3 L22,21 C22,22.6568542 20.6568542,24 19,24 L6,24 C4.34314575,24 3,22.6568542 3,21 Z M18,22 L19,22 C19.5522847,22 20,21.5522847 20,21 L20,3 C20,2.44771525 19.5522847,2 19,2 L6,2 C5.44771525,2 5,2.44771525 5,3 L5,21 C5,21.5522847 5.44771525,22 6,22 L7,22 L7,19 C7,16.790861 8.790861,15 11,15 L14,15 C16.209139,15 18,16.790861 18,19 L18,22 Z M16,22 L16,19 C16,17.8954305 15.1045695,17 14,17 L11,17 C9.8954305,17 9,17.8954305 9,19 L9,22 L16,22 Z M12.5,5 C14.9852814,5 17,7.01471863 17,9.5 C17,11.9852814 14.9852814,14 12.5,14 C10.0147186,14 8,11.9852814 8,9.5 C8,7.01471863 10.0147186,5 12.5,5 Z M12.5,7 C11.1192881,7 10,8.11928813 10,9.5 C10,10.8807119 11.1192881,12 12.5,12 C13.8807119,12 15,10.8807119 15,9.5 C15,8.11928813 13.8807119,7 12.5,7 Z"/>
</svg>

<svg xmlns="http://www.w3.org/2000/svg" width="24" height="24" viewBox="0 0 24 24"><path fill="#758CA3" fill-rule="evenodd" d="M3 21H2c-.5523 0-1-.4477-1-1s.4477-1 1-1h1v-2H2c-.5523 0-1-.4477-1-1s.4477-1 1-1h1v-2H2c-.5523 0-1-.4477-1-1s.4477-1 1-1h1V9H2c-.5523 0-1-.4477-1-1s.4477-1 1-1h1V5H2c-.5523 0-1-.4477-1-1s.4477-1 1-1h1c0-1.6569 1.3431-3 3-3h13c1.6569 0 3 1.3431 3 3v18c0 1.6569-1.3431 3-3 3H6c-1.6569 0-3-1.3431-3-3zm15 1h1c.5523 0 1-.4477 1-1V3c0-.5523-.4477-1-1-1H6c-.5523 0-1 .4477-1 1v18c0 .5523.4477 1 1 1h1v-3c0-2.2091 1.7909-4 4-4h3c2.2091 0 4 1.7909 4 4v3zm-2 0v-3c0-1.1046-.8954-2-2-2h-3c-1.1046 0-2 .8954-2 2v3h7zM12.5 5C14.9853 5 17 7.0147 17 9.5S14.9853 14 12.5 14 8 11.9853 8 9.5 10.0147 5 12.5 5zm0 2C11.1193 7 10 8.1193 10 9.5s1.1193 2.5 2.5 2.5S15 10.8807 15 9.5 13.8807 7 12.5 7z"/></svg>
